src/lib/images/svgs/logo-sveltekit.svg

<?xml version="1.0" encoding="UTF-8"?> <svg xmlns="http://www.w3.org/2000/svg" xmlns:xlink="http://www.w3.org/1999/xlink" width="96px" height="20px" viewBox="0 0 99 20" version="1.1"> <g id="surface1"> <path style=" stroke:none;fill-rule:nonzero;fill:rgb(55.294118%,55.294118%,57.647059%);fill-opacity:1;" d="M 78.6875 14.289062 L 76.277344 9.800781 L 74.757812 11.640625 L 74.757812 14.289062 L 73.484375 14.289062 L 73.484375 5.707031 L 74.757812 5.707031 L 74.757812 9.863281 L 78.0625 5.707031 L 79.535156 5.707031 L 77.132812 8.722656 L 80.183594 14.289062 Z M 82.9375 14.289062 L 82.9375 5.707031 L 84.210938 5.707031 L 84.210938 14.289062 Z M 90.847656 6.933594 L 90.847656 14.289062 L 89.574219 14.289062 L 89.574219 6.933594 L 87.148438 6.933594 L 87.148438 5.707031 L 93.269531 5.707031 L 93.269531 6.933594 Z M 90.847656 6.933594 "/> <path style=" stroke:none;fill-rule:nonzero;fill:rgb(29.019608%,29.019608%,33.333333%);fill-opacity:1;" d="M 24.792969 14.4375 C 24.09375 14.453125 23.410156 14.261719 22.824219 13.878906 C 22.273438 13.519531 21.867188 12.980469 21.671875 12.351562 L 22.871094 11.910156 C 23.039062 12.296875 23.308594 12.625 23.65625 12.859375 C 24.007812 13.097656 24.421875 13.21875 24.84375 13.210938 C 25.25 13.230469 25.648438 13.109375 25.976562 12.867188 C 26.261719 12.625 26.417969 12.261719 26.398438 11.886719 C 26.398438 11.714844 26.359375 11.542969 26.28125 11.390625 C 26.214844 11.253906 26.125 11.125 26.019531 11.015625 C 25.882812 10.894531 25.730469 10.792969 25.566406 10.714844 C 25.359375 10.613281 25.191406 10.535156 25.058594 10.480469 C 24.921875 10.429688 24.722656 10.355469 24.464844 10.269531 C 24.136719 10.152344 23.890625 10.0625 23.730469 9.996094 C 23.507812 9.902344 23.292969 9.796875 23.085938 9.671875 C 22.863281 9.554688 22.660156 9.402344 22.484375 9.21875 C 22.335938 9.042969 22.210938 8.839844 22.125 8.625 C 21.777344 7.78125 22.007812 6.808594 22.699219 6.210938 C 23.1875 5.777344 23.855469 5.558594 24.695312 5.558594 C 25.398438 5.558594 25.976562 5.714844 26.429688 6.023438 C 26.867188 6.316406 27.191406 6.757812 27.339844 7.265625 L 26.164062 7.65625 C 26.046875 7.390625 25.847656 7.167969 25.59375 7.023438 C 25.289062 6.855469 24.945312 6.773438 24.597656 6.785156 C 24.253906 6.765625 23.917969 6.859375 23.636719 7.054688 C 23.402344 7.234375 23.273438 7.519531 23.289062 7.816406 C 23.289062 8.039062 23.386719 8.253906 23.554688 8.402344 C 23.71875 8.5625 23.910156 8.691406 24.121094 8.785156 C 24.316406 8.867188 24.613281 8.976562 25.011719 9.113281 C 25.257812 9.203125 25.441406 9.273438 25.558594 9.316406 C 25.675781 9.363281 25.851562 9.4375 26.078125 9.542969 C 26.261719 9.625 26.4375 9.722656 26.605469 9.832031 C 26.753906 9.941406 26.898438 10.054688 27.035156 10.179688 C 27.179688 10.308594 27.308594 10.460938 27.40625 10.628906 C 27.503906 10.804688 27.578125 10.988281 27.628906 11.179688 C 27.691406 11.40625 27.722656 11.640625 27.71875 11.875 C 27.71875 12.675781 27.445312 13.300781 26.898438 13.753906 C 26.351562 14.207031 25.652344 14.4375 24.792969 14.4375 Z M 32.640625 14.289062 L 29.703125 5.707031 L 31.074219 5.707031 L 33.023438 11.691406 C 33.128906 12.011719 33.21875 12.339844 33.292969 12.671875 C 33.363281 12.339844 33.453125 12.011719 33.5625 11.691406 L 35.484375 5.707031 L 36.84375 5.707031 L 33.914062 14.289062 Z M 39.4375 14.289062 L 39.4375 5.707031 L 44.753906 5.707031 L 44.753906 6.910156 L 40.710938 6.910156 L 40.710938 9.261719 L 43.320312 9.261719 L 43.320312 10.464844 L 40.710938 10.464844 L 40.710938 13.089844 L 45.023438 13.089844 L 45.023438 14.289062 Z M 48.265625 14.289062 L 48.265625 5.707031 L 49.539062 5.707031 L 49.539062 13.0625 L 53.726562 13.0625 L 53.726562 14.289062 Z M 58.527344 6.933594 L 58.527344 14.289062 L 57.253906 14.289062 L 57.253906 6.933594 L 54.828125 6.933594 L 54.828125 5.707031 L 60.949219 5.707031 L 60.949219 6.933594 Z M 63.582031 14.289062 L 63.582031 5.707031 L 68.898438 5.707031 L 68.898438 6.910156 L 64.855469 6.910156 L 64.855469 9.261719 L 67.464844 9.261719 L 67.464844 10.464844 L 64.855469 10.464844 L 64.855469 13.089844 L 69.167969 13.089844 L 69.167969 14.289062 Z M 63.582031 14.289062 "/> <path style=" stroke:none;fill-rule:nonzero;fill:rgb(100%,24.313725%,0%);fill-opacity:1;" d="M 15.863281 4.074219 C 14.367188 1.933594 11.417969 1.296875 9.28125 2.660156 L 5.535156 5.050781 C 4.511719 5.695312 3.804688 6.742188 3.59375 7.933594 C 3.414062 8.929688 3.570312 9.953125 4.039062 10.847656 C 3.71875 11.332031 3.5 11.882812 3.394531 12.457031 C 3.179688 13.671875 3.460938 14.921875 4.179688 15.925781 C 5.671875 18.066406 8.625 18.703125 10.757812 17.339844 L 14.507812 14.949219 C 15.53125 14.304688 16.234375 13.257812 16.449219 12.066406 C 16.628906 11.070312 16.46875 10.046875 16.003906 9.152344 C 16.324219 8.667969 16.542969 8.117188 16.644531 7.542969 C 16.859375 6.328125 16.578125 5.078125 15.863281 4.074219 "/> <path style=" stroke:none;fill-rule:nonzero;fill:rgb(100%,100%,100%);fill-opacity:1;" d="M 8.917969 16.125 C 7.710938 16.441406 6.433594 15.96875 5.722656 14.941406 C 5.292969 14.335938 5.121094 13.585938 5.25 12.855469 C 5.273438 12.734375 5.304688 12.617188 5.339844 12.503906 L 5.410156 12.289062 L 5.601562 12.429688 C 6.046875 12.757812 6.542969 13.003906 7.070312 13.164062 L 7.207031 13.207031 L 7.195312 13.34375 C 7.179688 13.542969 7.230469 13.742188 7.347656 13.902344 C 7.5625 14.210938 7.945312 14.355469 8.308594 14.261719 C 8.390625 14.238281 8.46875 14.203125 8.539062 14.160156 L 12.285156 11.765625 C 12.472656 11.648438 12.601562 11.460938 12.640625 11.246094 C 12.679688 11.023438 12.625 10.796875 12.496094 10.617188 C 12.28125 10.304688 11.898438 10.164062 11.535156 10.257812 C 11.453125 10.28125 11.375 10.3125 11.304688 10.359375 L 9.875 11.273438 C 9.640625 11.421875 9.382812 11.535156 9.113281 11.605469 C 7.90625 11.921875 6.628906 11.445312 5.917969 10.421875 C 5.488281 9.816406 5.316406 9.0625 5.445312 8.332031 C 5.574219 7.617188 6 6.988281 6.617188 6.601562 L 10.363281 4.207031 C 10.597656 4.058594 10.855469 3.945312 11.125 3.875 C 12.332031 3.558594 13.609375 4.03125 14.320312 5.058594 C 14.75 5.664062 14.921875 6.414062 14.792969 7.144531 C 14.769531 7.265625 14.738281 7.382812 14.699219 7.496094 L 14.628906 7.710938 L 14.4375 7.570312 C 13.996094 7.246094 13.5 6.996094 12.972656 6.835938 L 12.832031 6.796875 L 12.847656 6.65625 C 12.863281 6.457031 12.808594 6.261719 12.695312 6.097656 C 12.480469 5.789062 12.097656 5.644531 11.734375 5.742188 C 11.652344 5.761719 11.574219 5.796875 11.503906 5.839844 L 7.753906 8.234375 C 7.570312 8.351562 7.441406 8.539062 7.402344 8.753906 C 7.363281 8.976562 7.414062 9.203125 7.542969 9.382812 C 7.757812 9.695312 8.144531 9.835938 8.507812 9.742188 C 8.589844 9.71875 8.667969 9.6875 8.738281 9.640625 L 10.167969 8.730469 C 10.402344 8.578125 10.660156 8.464844 10.929688 8.394531 C 12.136719 8.078125 13.410156 8.554688 14.125 9.578125 C 14.554688 10.183594 14.722656 10.933594 14.59375 11.664062 C 14.464844 12.382812 14.042969 13.011719 13.425781 13.398438 L 9.679688 15.792969 C 9.441406 15.941406 9.1875 16.054688 8.917969 16.125 "/> </g> </svg>

<svg xmlns="http://www.w3.org/2000/svg" width="96" height="20" viewBox="0 0 99 20"><path d="m78.688 14.29-2.41-4.49-1.52 1.84v2.65h-1.274V5.706h1.274v4.156l3.305-4.156h1.472l-2.402 3.016 3.05 5.566Zm4.25 0V5.706h1.273v8.582Zm7.91-7.356v7.355h-1.274V6.934h-2.426V5.707h6.122v1.227Zm0 0" style="stroke:none;fill-rule:nonzero;fill:#8d8d93;fill-opacity:1"/><path d="M24.793 14.438a3.448 3.448 0 0 1-1.969-.56 2.819 2.819 0 0 1-1.152-1.526l1.2-.442c.167.387.437.715.784.95.352.238.766.359 1.188.35.406.02.804-.1 1.133-.343.285-.242.441-.605.421-.98 0-.172-.039-.344-.117-.496a1.47 1.47 0 0 0-.261-.375 1.946 1.946 0 0 0-.454-.301 8.977 8.977 0 0 0-.507-.235c-.137-.05-.336-.125-.594-.21a18.053 18.053 0 0 1-.735-.274 4.973 4.973 0 0 1-.644-.324 2.342 2.342 0 0 1-.602-.453 2.193 2.193 0 0 1-.359-.594 2.122 2.122 0 0 1 .574-2.414c.488-.434 1.156-.652 1.996-.652.703 0 1.282.156 1.735.464.437.293.761.735.91 1.243l-1.176.39a1.359 1.359 0 0 0-.57-.633 1.927 1.927 0 0 0-.996-.238c-.344-.02-.68.074-.961.27a.898.898 0 0 0-.348.761c0 .223.098.438.266.586.164.16.355.29.566.383.195.082.492.192.89.328.247.09.43.16.548.203.117.047.293.121.52.227.183.082.358.18.526.289.149.11.293.223.43.348.145.129.274.28.371.449.098.176.172.36.223.55.062.227.094.462.09.696 0 .8-.274 1.426-.82 1.879-.547.453-1.247.684-2.106.684Zm7.848-.149-2.938-8.582h1.371l1.95 5.984c.105.32.195.649.269.98.07-.331.16-.66.27-.98l1.921-5.984h1.36l-2.93 8.582Zm6.797 0V5.707h5.316V6.91H40.71v2.352h2.61v1.203h-2.61v2.625h4.312v1.2Zm8.828 0V5.707h1.273v7.356h4.188v1.226Zm10.261-7.355v7.355h-1.273V6.934h-2.426V5.707h6.121v1.227Zm5.055 7.355V5.707h5.316V6.91h-4.043v2.352h2.61v1.203h-2.61v2.625h4.313v1.2Zm0 0" style="stroke:none;fill-rule:nonzero;fill:#4a4a55;fill-opacity:1"/><path d="M15.863 4.074c-1.496-2.14-4.445-2.777-6.582-1.414L5.535 5.05a4.295 4.295 0 0 0-1.941 2.884c-.18.996-.024 2.02.445 2.914a4.346 4.346 0 0 0-.644 1.609 4.585 4.585 0 0 0 .785 3.469c1.492 2.14 4.445 2.777 6.578 1.414l3.75-2.39a4.308 4.308 0 0 0 1.941-2.884c.18-.996.02-2.02-.445-2.914.32-.484.539-1.035.64-1.609a4.6 4.6 0 0 0-.78-3.469" style="stroke:none;fill-rule:nonzero;fill:#ff3e00;fill-opacity:1"/><path d="M8.918 16.125a2.97 2.97 0 0 1-3.195-1.184 2.771 2.771 0 0 1-.473-2.086c.023-.12.055-.238.09-.351l.07-.215.192.14c.445.329.941.575 1.468.735l.137.043-.012.137c-.015.199.035.398.153.558a.899.899 0 0 0 .96.36.94.94 0 0 0 .231-.102l3.746-2.394a.777.777 0 0 0 .356-.52.833.833 0 0 0-.145-.629.892.892 0 0 0-.96-.36.813.813 0 0 0-.231.102l-1.43.914a2.703 2.703 0 0 1-.762.332 2.977 2.977 0 0 1-3.195-1.183 2.78 2.78 0 0 1-.473-2.09 2.585 2.585 0 0 1 1.172-1.73l3.746-2.395c.235-.148.492-.262.762-.332a2.97 2.97 0 0 1 3.195 1.184c.43.605.602 1.355.473 2.086a2.582 2.582 0 0 1-.094.351l-.07.215-.191-.14a4.868 4.868 0 0 0-1.465-.735l-.141-.04.016-.14a.861.861 0 0 0-.153-.558.89.89 0 0 0-1.191-.258l-3.75 2.394a.785.785 0 0 0-.352.52c-.039.223.012.45.141.629a.898.898 0 0 0 .965.36.813.813 0 0 0 .23-.102l1.43-.91c.234-.153.492-.266.762-.336a2.98 2.98 0 0 1 3.195 1.183 2.77 2.77 0 0 1 .469 2.086 2.579 2.579 0 0 1-1.168 1.734L9.68 15.793a2.752 2.752 0 0 1-.762.332" style="stroke:none;fill-rule:nonzero;fill:#fff;fill-opacity:1"/></svg>
